X:50
T:Polska ur Petter Dufvas notbok (Ma6-50)
R:Polska
O:Verkelbäck, Småland
B:Petter Dufvas notbok
S:Petter Dufva
N:Smus Ma6 bild 52
M:3/4
L:1/8
K:D
aa/g/ fedc|dd/c/ BAGF|GA Bcdf|ed/c/ d2 D2:|
|:da affd|Bg gccA|da affd|Bg gccA|
bbaa gf|ed/c/ d2 D2:|

